X: 11607
T: Eggnog
R: waltz
M: 3/4
K: Dmajor
|:e2 BA GE|G3 A3|e2 BA GE|G6|
e2 BA GE|G3 A3|e2 BA GE|D6:|
E3 F G2|(AB2) (GE2)|E2 D E3|
|:e2 BA GE|G3 A3|e2 BA GE|G6|
e2 BA GE|G3 A3|e2 BA GE|D6:|
|:f2 ga gf|e3 f3|f2 ga gf|e6|
f2 ga gf|e3 f3|e2 fe dB|1 d6:|2 (d6|d6)||

